X:1
T:Eternal depth of love divine
T:Eternal depth of love divine - Wigan (John Fawcett)
C:John Fawcett
Z:p3, The Harp of Zion,
Z:London: [c1833]
%%score [ 1 2 3 4 ]
L:1/8
M:2/4
K:Eb
V:1 treble nm="SOPRANO" snm="S."
V:2 treble nm="ALTO" snm="A."
V:3 treble-8 transpose=-12 nm="TENOR" snm="T."
V:4 bass nm="BASS" snm="B."
V:1
"^Moderato" B2 eB | c3 c | (B>A G)F | G4 | B2 =AB | (c>B c)d | (e>d) c2 | B4 | e2 BG | (Ac) (BG) | %10
w: The dic- tates|of thy|sov- * * ’reign|will|With joy our|thank- * * ful|hearts _ re-|ceive:|All thy de-|light _ in _|
w: E- ter- nal|depth of|love _ _ di-|vine,|In Je- sus,|God _ _ with|us, _ dis-|play’d;|How bright thy|bea- * ming _|
w: With whom dost|thou de-|light _ _ to|dwell?|Sin- ners, a|vile _ _ and|thank- * less|race;|O God, what|tongue _ a- *|
 A2 G2 | F3!p! B | (cB) (A/>B/c) | (B>A G)B | (cB) (A/>B/c) | (B>A G)!f!B | (cd) (ec) | %17
w: us ful-|fil; Lo!|all _ we _ _|are _ _ to|thee _ we _ _|give, _ _ lo!|all _ we _|
w: glo- ries|shine! How|wide _ thy _ _|hea- * * ling|streams _ are _ _|spread, _ _ how|wide _ thy _|
w: right can|tell How|vast _ thy _ _|love, _ _ how|great _ thy _ _|grace, _ _ how|vast _ thy _|
 (cB) (d/c/B/A/) | G2 F2 | E4 |] %20
w: are _ to _ _ _|thee we|give.|
w: hea- * ling _ _ _|streams are|spread!|
w: love, _ how _ _ _|great thy|grace!|
V:2
 G2 GG | A3 A | (G>F E)D | E4 | F2 ED | F3 F | G2 (FE) | D4 | G2 EE | (CA) (GE) | D2 E2 | D3!p! G | %12
w: The dic- tates|of thy|sov- * * ’reign|will|With joy our|thank- ful|hearts re- *|ceive:|All thy de-|light _ in _|us ful-|fil; Lo!|
w: E- ter- nal|depth of|love _ _ di-|vine,|In Je- sus,|God with|us, dis- *|play’d;|How bright thy|bea- * ming _|glo- ries|shine! How|
w: With whom dost|thou de-|light _ _ to|dwell?|Sin- ners, a|vile and|thank- less _|race;|O God, what|tongue _ a- *|right can|tell How|
 (AG) (F/>G/A) | (G>F E)G | (AG) (F/>G/A) | (G>F E)!f!E | E2 E2 | E2 E2 | E2 D2 | E4 |] %20
w: all _ we _ _|are _ _ to|thee _ we _ _|give, _ _ lo!|all we|are to|thee we|give.|
w: wide _ thy _ _|hea- * * ling|streams _ are _ _|spread, _ _ how|wide thy|hea- ling|streams are|spread!|
w: vast _ thy _ _|love, _ _ how|great _ thy _ _|grace, _ _ how|vast thy|love, how|great thy|grace!|
V:3
 e2 Be | e3 e | (e B2) B | B4 | B2 c(d/B/) | (=A>G A)(B/c/4d/4) | (c>B) =A2 | B4 | B2 eB | c2 e2 | %10
w: The dic- tates|of thy|sov- * ’reign|will|With joy our _|thank- * * ful _ _|hearts _ re-|ceive:|All thy de-|light in|
w: E- ter- nal|depth of|love _ di-|vine,|In Je- sus, _|God _ _ with _ _|us, _ dis-|play’d;|How bright thy|bea- ming|
w: With whom dost|thou de-|light _ to|dwell?|Sin- ners, a _|vile _ _ and _ _|thank- * less|race;|O God, what|tongue a-|
 B2 B2 | B3 z | z4 | z4 | z4 | z2 z!f! G | (AB) (cA) | (AG) (AB/c/) | B3 A | G4 |] %20
w: us ful-|fil;||||Lo!|all _ we _|are _ to _ _|thee we|give.|
w: glo- ries|shine!||||How|wide _ thy _|hea- * ling _ _|streams are|spread!|
w: right can|tell||||How|vast _ thy _|love, _ how _ _|great thy|grace!|
V:4
 E,2 G,E, | A,3 A, | B,3 B,, | E,4 | D,2 C,B,, | F,3 B, | E,2 F,2 | B,,4 | E,2 E,E, | E,2 E,2 | %10
w: The dic- tates|of thy|sov- ’reign|will|With joy our|thank- ful|hearts re-|ceive:|All thy de-|light in|
w: E- ter- nal|depth of|love di-|vine,|In Je- sus,|God with|us, dis-|play’d;|How bright thy|bea- ming|
w: With whom dost|thou de-|light to|dwell?|Sin- ners, a|vile and|thank- less|race;|O God, what|tongue a-|
 F,2 E,2 | B,,3!p! E, | E,2 E,2 | E,3 E, | %14
w: us ful-|fil; Lo!|all we|are to|
w: glo- ries|shine! How|wide thy|hea- ling|
w: right can|tell How|vast thy|love, how|
"^The order of parts in the source (specified in the first piece in the book) is Alto - Tenor - Air - Bass. The Air and Bassare bracketed together, with additional small notes on these staves filling in the harmony of a keyboard accompanimentpart which doubles the voices. This accompaniment is marked ‘Organ’ in the first piece in the book, and is described as‘an Accompaniment for the Organ, &c.’ on the title page: it has been omitted from the present edition.The Alto and Tenor parts are printed in the source in the treble clef, an octave above sounding pitch.Only the opening line of the first verse of the text is given in the source: the remainder of the text has here been addededitiorially.The tenor C and D in bar 6, beat 2 and the soprano D on bar 18, beat 2 are shown in the source as small semiquavergrace notes with a time value additional to that of the bar: they have here been written out in full, with their time valuesdeducted from the notes to which they are slurred." E,2 E,2 | %15
w: thee we|
w: streams are|
w: great thy|
"^O King of glory, thy rich graceOur feeble thought surpasses far;Yea, ev’n our crimes, though numberless,Less num’rous than thy mercies are.Still, Lord, thy saving health display,And arm our souls with heav’nly zeal;So fearless shall we urge our wayThrough all the pow’rs of earth and hell." E,3!f! E, | %16
w: give, lo!|
w: spread, how|
w: grace, how|
 A,2 A,2 | E,2 A,2 | B,2 B,,2 | E,4 |] %20
w: all we|are to|thee we|give.|
w: wide thy|hea- ling|streams are|spread!|
w: vast thy|love, how|great thy|grace!|

